!!!OTL: In den schoenen Monat Mai, trueholda, duholda, zieht der Koehler in den Hai, trueholdahudue,
!!!ARE: Europa, Mitteleuropa, Deutschland, Harz
!!!SCT: D0236
!!!YEM: Copyright 1995, estate of Helmut Schaffrath.
**kern
*ICvox
*Ivox
*M2/4
*k[f#c#]
*D:
=1
{8d
8d
8f#
8f#
=2
8a
8a
4f#}
=3
{8cc#
8a
4a
=4
8dd
8f#
4a}
=5
{8d
8d
8f#
8f#
=6
8a
8a
4f#}
=7
{8cc#
8a
16a
8.ff#
=8
[8.dd
16dd]
{8.ff#
16ee
=9
16dd
8.f#
12dd
12f#
12dd
=10
16cc#
8.e
16g
8.ee}
=11
{16cc#
8.e
12cc#
12e
12cc#
=12
16dd
8.f#
16a
8.ff#
=13
4dd
4r}
==
!!!AGN: Staende - Lied, Koehler
!! rhythmische Korrektur in der zweiten Zeile;
!!    Inzipit = Variante zum Lied; Variante zu D0234 ? (DVA-Signatur 236a)
!!!ONB: ESAC (Essen Associative Code) Database: DVA
!!!AMT: simple duple
!!!AIN: vox
!!!EED: Helmut Schaffrath
!!!EEV: 1.0
*-
